assets/build/img/icons/map.svg

<?xml version="1.0" encoding="UTF-8"?>
<svg width="14px" height="14px" viewBox="0 0 14 14" version="1.1" xmlns="http://www.w3.org/2000/svg" xmlns:xlink="http://www.w3.org/1999/xlink">
    <!-- Generator: sketchtool 51.3 (57544) - http://www.bohemiancoding.com/sketch -->
    <title>88909A30-2AFB-4BB2-A59B-46E9B2AAB105</title>
    <desc>Created with sketchtool.</desc>
    <defs></defs>
    <g id="Symbols" stroke="none" stroke-width="1" fill="none" fill-rule="evenodd">
        <g id="icon/blue/localizacao" transform="translate(-1.000000, -1.000000)" fill="#0d2345" fill-rule="nonzero">
            <g id="noun_Map_1560955" transform="translate(1.000000, 1.000000)">
                <path d="M13.7429738,0.246578249 C13.5826885,0.136372097 13.3798816,0.117394148 13.2032656,0.196074271 L9.4167411,1.88498674 L5.06195241,0.185676393 C5.04182456,0.179321806 5.02131464,0.174359599 5.00055703,0.170822281 C4.97463229,0.160813117 4.94786301,0.153353449 4.92060025,0.148541114 C4.90110497,0.147308729 4.88155575,0.147308729 4.86206047,0.148541114 C4.83783498,0.146316372 4.81346818,0.146316372 4.78924269,0.148541114 C4.7678257,0.148541114 4.7478365,0.158938992 4.72641951,0.163395225 C4.70219504,0.169248702 4.67835076,0.176690619 4.65502953,0.185676393 L4.64217934,0.185676393 L0.644340537,1.96816976 C0.428807334,2.06167844 0.289706562,2.28227824 0.293101842,2.52519894 L0.293101842,12.6259947 C0.293133468,12.8258081 0.389700956,13.0122246 0.550105765,13.122122 C0.64334706,13.1860456 0.752555449,13.2201301 0.864221671,13.2201592 C0.941675158,13.2197313 1.01830427,13.2035853 1.089814,13.172626 L4.87633847,11.4837135 L9.23112716,13.1830239 C9.23112716,13.1830239 9.24254955,13.1830239 9.24826075,13.1830239 C9.30681721,13.2057205 9.36855711,13.2182657 9.4310191,13.2201592 C9.50007747,13.218584 9.5682884,13.2039888 9.63233884,13.1770822 L9.65661143,13.1770822 L13.6544502,11.3945889 C13.8658023,11.3000593 14.0020027,11.082831 13.9999777,10.8435013 L13.9999777,0.74270557 C13.9999461,0.542892129 13.9033786,0.356475641 13.7429738,0.246578249 Z M1.4353415,2.91734748 L4.29094064,1.64435013 L4.29094064,10.4513528 L1.4353415,11.7243501 L1.4353415,2.91734748 Z M5.4331803,1.5997878 L8.85989927,2.93665782 L8.85989927,11.7689125 L5.4331803,10.4320424 L5.4331803,1.5997878 Z M12.8577381,10.4513528 L10.0021389,11.7243501 L10.0021389,2.91734748 L12.8577381,1.64435013 L12.8577381,10.4513528 Z" id="Shape"></path>
            </g>
        </g>
    </g>
</svg>

<svg width="14" height="14" xmlns="http://www.w3.org/2000/svg"><path d="M13.743.247a.552.552 0 0 0-.54-.05L9.417 1.884 5.062.185a.461.461 0 0 0-.061-.014.429.429 0 0 0-.08-.022.464.464 0 0 0-.059 0 .398.398 0 0 0-.073 0c-.021 0-.041.01-.063.014a.573.573 0 0 0-.071.023h-.013L.644 1.968a.595.595 0 0 0-.35.557v10.101a.6.6 0 0 0 .256.496.555.555 0 0 0 .54.05l3.786-1.688 4.355 1.699h.017c.059.023.12.035.183.037a.552.552 0 0 0 .201-.043h.025l3.997-1.782a.596.596 0 0 0 .346-.551V.743a.6.6 0 0 0-.257-.496zM1.435 2.917l2.856-1.273v8.807l-2.856 1.273V2.917zM5.433 1.6L8.86 2.937v8.832l-3.427-1.337V1.6zm7.425 8.851l-2.856 1.273V2.917l2.856-1.273v8.807z" fill="#0d2345"/></svg>
